app/client/src/assets/icons/blueprintjs/20px/camera.svg

<svg xmlns="http://www.w3.org/2000/svg" xml:space="preserve" viewBox="0 0 20 20"><path fill-rule="evenodd" d="M10 8c-1.66 0-3 1.34-3 3s1.34 3 3 3 3-1.34 3-3-1.34-3-3-3zm9-4h-3.59L13.7 2.29A.956.956 0 0 0 13 2H7c-.28 0-.53.11-.71.29L4.59 4H1c-.55 0-1 .45-1 1v10c0 .55.45 1 1 1h4.11c1.26 1.24 2.99 2 4.89 2s3.63-.76 4.89-2H19c.55 0 1-.45 1-1V5c0-.55-.45-1-1-1zM4 8H2V6h2v2zm6 8c-2.76 0-5-2.24-5-5s2.24-5 5-5 5 2.24 5 5-2.24 5-5 5z" clip-rule="evenodd"/></svg>

<?xml version="1.0" encoding="utf-8"?>
<!-- Generator: Adobe Illustrator 18.1.0, SVG Export Plug-In . SVG Version: 6.00 Build 0)  -->
<svg version="1.1" id="Layer_1" xmlns="http://www.w3.org/2000/svg" xmlns:xlink="http://www.w3.org/1999/xlink" x="0px" y="0px"
	 viewBox="0 0 20 20" enable-background="new 0 0 20 20" xml:space="preserve">
<g id="camera_1_">
	<g>
		<path fill-rule="evenodd" clip-rule="evenodd" d="M10,8c-1.66,0-3,1.34-3,3s1.34,3,3,3s3-1.34,3-3S11.66,8,10,8z M19,4h-3.59
			l-1.71-1.71C13.53,2.11,13.28,2,13,2H7C6.72,2,6.47,2.11,6.29,2.29L4.59,4H1C0.45,4,0,4.45,0,5v10c0,0.55,0.45,1,1,1h4.11
			c1.26,1.24,2.99,2,4.89,2s3.63-0.76,4.89-2H19c0.55,0,1-0.45,1-1V5C20,4.45,19.55,4,19,4z M4,8H2V6h2V8z M10,16
			c-2.76,0-5-2.24-5-5s2.24-5,5-5s5,2.24,5,5S12.76,16,10,16z"/>
	</g>
</g>
</svg>
